X:102
T:T063A- Barley Sugar (Scots- Barley Cakes)
S:Johnson's 200 Country Dances, III, 1744
Q:1/4=120
L:1/8
M:6/8
K:G
d|B2G B/c/dB|A2F A/B/cA|B2G B/c/dB|d3g2d|B2G B/c/dB|A2F A/B/cA|\
D2E F/G/AF|G3G,2::d|a2bg2a|f2ge2d|f2ef2g|a3d3|egB ceA|BdG FAD|\
E/F/GE F/G/AF|G3G,2:|]

